;Generated by Cura LulzBot Edition GCodeWriter Version: 3.2.27
;FLAVOR:Marlin
;TIME:1914
;Filament used: 0.859687m
;Layer height: 0.25
;Generated with Cura_SteamEngine 3.2.27
M82 ;absolute extrusion mode
;This G-Code has been generated specifically for the LulzBot TAZ 6 with standard extruder
M75 ; start GLCD timer
G26 ; clear potential 'probe fail' condition
G21 ; set units to Millimetres
M107 ; disable fans
M420 S0 ; disable previous leveling matrix
G90 ; absolute positioning
M82 ; set extruder to absolute mode
G92 E0 ; set extruder position to 0
M140 S60 ; start bed heating up
M109 R140 ; soften filament before homing Z
G28 ; Home all axis
G1 E-30 F100 ; retract filament
M109 R140 ; wait for extruder to reach wiping temp
G1 X-15 Y100 F3000 ; move above wiper pad
G1 Z1 ; push nozzle into wiper
G1 X-17 Y95 F1000 ; slow wipe
G1 X-17 Y90 F1000 ; slow wipe
G1 X-17 Y85 F1000 ; slow wipe
G1 X-15 Y90 F1000 ; slow wipe
G1 X-17 Y80 F1000 ; slow wipe
G1 X-15 Y95 F1000 ; slow wipe
G1 X-17 Y75 F2000 ; fast wipe
G1 X-15 Y65 F2000 ; fast wipe
G1 X-17 Y70 F2000 ; fast wipe
G1 X-15 Y60 F2000 ; fast wipe
G1 X-17 Y55 F2000 ; fast wipe
G1 X-15 Y50 F2000 ; fast wipe
G1 X-17 Y40 F2000 ; fast wipe
G1 X-15 Y45 F2000 ; fast wipe
G1 X-17 Y35 F2000 ; fast wipe
G1 X-15 Y40 F2000 ; fast wipe
G1 X-17 Y70 F2000 ; fast wipe
G1 X-15 Y30 Z2 F2000 ; fast wipe
G1 X-17 Y35 F2000 ; fast wipe
G1 X-15 Y25 F2000 ; fast wipe
G1 X-17 Y30 F2000 ; fast wipe
G1 X-15 Y25 Z1.5 F1000 ; slow wipe
G1 X-17 Y23 F1000 ; slow wipe
G1 Z10 ; raise extruder
M109 R140 ; wait for extruder to reach probe temp
G1 X-9 Y-9 ; move above first probe point
M204 S100 ; set probing acceleration
G29 ; start auto-leveling sequence
M420 S1 ; activate bed level matrix
M425 Z			     ; use measured Z backlash for compensation
M425 Z F0		     ; turn off measured Z backlash compensation. (if activated in the quality settings, this command will automatically be ignored)
M204 S500 ; restore standard acceleration
G1 X0 Y0 Z15 F5000 ; move up off last probe point
G4 S1 ; pause
M400 ; wait for moves to finish
M117 Heating... ; progress indicator message on LCD
M109 R210 ; wait for extruder to reach printing temp
M190 S60 ; wait for bed to reach printing temp
G1 Z2 E0 F75 ; prime tiny bit of filament into the nozzle
M117 TAZ 6 Printing... ; progress indicator message on LCD

M221 S100
;LAYER_COUNT:51
;LAYER:0
M107
G0 F2625 X126.913 Y114.82 Z0.424
;TYPE:SKIRT
G1 F900 X127.244 Y114.534 E0.01454
G1 X128.553 Y113.531 E0.06934
G1 X129.175 Y113.145 E0.09367
G1 X129.917 Y112.779 E0.12116
G1 X130.604 Y112.52 E0.14556
G1 X132.198 Y112.092 E0.20041
G1 X132.965 Y111.97 E0.22622
G1 X138.889 Y111.646 E0.42338
G1 X144.305 Y111.063 E0.6044
G1 X150.544 Y110.017 E0.81463
G1 X150.918 Y109.973 E0.82714
G1 X151.753 Y109.918 E0.85495
G1 X152.33 Y109.925 E0.87413
G1 X153.412 Y110.021 E0.91023
G1 X154.116 Y110.152 E0.93403
G1 X155.457 Y110.537 E0.98039
G1 X156.085 Y110.78 E1.00277
G1 X156.847 Y111.157 E1.03102
G1 X157.339 Y111.449 E1.05003
G1 X158.199 Y112.053 E1.08496
G1 X158.735 Y112.511 E1.10839
G1 X159.712 Y113.518 E1.15501
G1 X160.136 Y114.04 E1.17736
G1 X160.596 Y114.726 E1.20481
G1 X160.84 Y115.149 E1.22104
G1 X161.214 Y115.903 E1.24901
G1 X161.43 Y116.437 E1.26815
G1 X161.753 Y117.457 E1.30371
G1 X161.835 Y117.76 E1.31414
G1 X163.17 Y123.652 E1.5149
G1 X163.881 Y126.259 E1.6047
G1 X165.546 Y131.468 E1.78644
G1 X167.442 Y136.45 E1.96358
G1 X167.527 Y136.701 E1.97239
G1 X167.769 Y137.503 E2.00023
G1 X167.905 Y138.162 E2.02259
G1 X168.066 Y139.576 E2.06988
G1 X168.084 Y140.214 E2.09109
G1 X167.647 Y147.877 E2.34616
G1 X167.677 Y153.301 E2.52642
G1 X168.083 Y159.759 E2.74145
G1 X168.082 Y160.236 E2.7573
G1 X168.028 Y161.071 E2.78511
G1 X167.946 Y161.647 E2.80445
G1 X167.711 Y162.699 E2.84027
G1 X167.492 Y163.372 E2.86379
G1 X166.941 Y164.644 E2.90985
G1 X166.687 Y165.129 E2.92805
G1 X166.476 Y165.434 E2.94037
G1 X165.456 Y166.765 E2.9961
G1 X165.093 Y167.174 E3.01427
G1 X164.762 Y167.459 E3.02879
G1 X163.448 Y168.467 E3.08382
G1 X162.751 Y168.891 E3.11093
G1 X161.784 Y169.342 E3.14639
G1 X161.268 Y169.537 E3.16472
G1 X160.461 Y169.777 E3.1927
G1 X159.968 Y169.889 E3.2095
G1 X159.138 Y170.018 E3.23742
G1 X158.391 Y170.058 E3.26228
G1 X151.278 Y169.732 E3.4989
G1 X145.814 Y169.761 E3.68049
G1 X139.946 Y170.076 E3.87577
G1 X139.489 Y170.072 E3.89096
G1 X136.012 Y169.834 E4.00678
G1 X130.511 Y169.708 E4.18964
G1 X127.854 Y169.759 E4.27795
G1 X122.216 Y170.084 E4.46562
G1 X121.668 Y170.075 E4.48384
G1 X120.587 Y169.979 E4.5199
G1 X119.882 Y169.848 E4.54373
G1 X118.54 Y169.462 E4.59014
G1 X117.914 Y169.219 E4.61245
G1 X117.15 Y168.841 E4.64078
G1 X116.55 Y168.47 E4.66422
G1 X115.365 Y167.573 E4.71361
G1 X114.954 Y167.212 E4.73179
G1 X114.762 Y167.001 E4.74127
G1 X113.888 Y165.965 E4.78631
G1 X113.461 Y165.341 E4.81144
G1 X112.849 Y164.218 E4.85394
G1 X112.566 Y163.554 E4.87793
G1 X112.246 Y162.541 E4.91323
G1 X112.118 Y161.996 E4.93184
G1 X111.984 Y161.147 E4.9604
G1 X111.939 Y160.648 E4.97705
G1 X111.92 Y159.821 E5.00454
G1 X111.928 Y159.47 E5.01621
G1 X112.254 Y154.863 E5.16969
G1 X112.377 Y149.417 E5.35072
G1 X112.19 Y143.931 E5.53313
G1 X111.927 Y139.98 E5.66472
G1 X111.941 Y139.327 E5.68643
G1 X112.03 Y138.505 E5.71391
G1 X112.154 Y137.871 E5.73537
G1 X112.537 Y136.541 E5.78137
G1 X112.779 Y135.918 E5.80358
G1 X113.156 Y135.155 E5.83186
G1 X113.4 Y134.733 E5.84806
G1 X113.855 Y134.052 E5.87528
G1 X114.047 Y133.79 E5.88607
G1 X116.044 Y131.298 E5.9922
G1 X119.265 Y126.887 E6.17371
G1 X122.228 Y122.307 E6.35498
G1 X125.239 Y116.996 E6.55787
G1 X125.526 Y116.564 E6.5751
G1 X126.55 Y115.229 E6.63102
G1 X126.913 Y114.82 E6.64919
G0 F2625 X127.287 Y115.154
G1 F900 X127.548 Y114.931 E6.6606
G1 X128.857 Y113.928 E6.7154
G1 X129.396 Y113.593 E6.73649
G1 X130.138 Y113.227 E6.76399
G1 X130.733 Y113.003 E6.78511
G1 X132.327 Y112.575 E6.83996
G1 X132.993 Y112.469 E6.86237
G1 X138.932 Y112.145 E7.06003
G1 X144.373 Y111.558 E7.2419
G1 X150.627 Y110.51 E7.45263
G1 X150.95 Y110.472 E7.46343
G1 X151.785 Y110.417 E7.49124
G1 X152.286 Y110.423 E7.50789
G1 X153.368 Y110.519 E7.54399
G1 X153.978 Y110.632 E7.56461
G1 X155.319 Y111.017 E7.61097
G1 X155.863 Y111.228 E7.63036
G1 X156.625 Y111.605 E7.65861
G1 X157.052 Y111.858 E7.67511
G1 X157.912 Y112.462 E7.71003
G1 X158.377 Y112.859 E7.73035
G1 X159.354 Y113.866 E7.77698
G1 X159.72 Y114.319 E7.79633
G1 X160.18 Y115.005 E7.82378
G1 X160.393 Y115.371 E7.83785
G1 X160.767 Y116.125 E7.86582
G1 X160.953 Y116.588 E7.8824
G1 X161.276 Y117.608 E7.91796
G1 X161.348 Y117.871 E7.92702
G1 X162.69 Y123.795 E8.12888
G1 X163.399 Y126.391 E8.21831
G1 X165.078 Y131.646 E8.40164
G1 X166.974 Y136.628 E8.57878
G1 X167.048 Y136.845 E8.5864
G1 X167.29 Y137.647 E8.61424
G1 X167.408 Y138.218 E8.63362
G1 X167.569 Y139.632 E8.68091
G1 X167.585 Y140.185 E8.6993
G1 X167.147 Y147.867 E8.955
G1 X167.177 Y153.318 E9.13615
G1 X167.584 Y159.79 E9.35165
G1 X167.583 Y160.204 E9.36541
G1 X167.529 Y161.039 E9.39322
G1 X167.458 Y161.538 E9.40997
G1 X167.223 Y162.59 E9.44579
G1 X167.033 Y163.173 E9.46616
G1 X166.482 Y164.445 E9.51223
G1 X166.244 Y164.895 E9.52915
G1 X166.08 Y165.13 E9.53867
G1 X165.06 Y166.461 E9.5944
G1 X164.719 Y166.84 E9.61134
G1 X164.458 Y167.063 E9.62275
G1 X163.144 Y168.071 E9.67778
G1 X162.54 Y168.437 E9.70125
G1 X161.573 Y168.888 E9.73671
G1 X161.125 Y169.058 E9.75264
G1 X160.318 Y169.298 E9.78061
G1 X159.891 Y169.394 E9.79516
G1 X159.061 Y169.523 E9.82307
G1 X158.413 Y169.559 E9.84464
G1 X151.278 Y169.232 E10.082
G1 X145.785 Y169.262 E10.26455
G1 X139.919 Y169.576 E10.45976
G1 X139.523 Y169.573 E10.47292
G1 X136.036 Y169.334 E10.58908
G1 X130.512 Y169.207 E10.7727
G1 X127.841 Y169.259 E10.86148
G1 X122.187 Y169.585 E11.04968
G1 X121.713 Y169.577 E11.06544
G1 X120.632 Y169.481 E11.1015
G1 X120.021 Y169.367 E11.12216
G1 X118.679 Y168.981 E11.16856
G1 X118.136 Y168.771 E11.18791
G1 X117.372 Y168.393 E11.21624
G1 X116.851 Y168.071 E11.23659
G1 X115.666 Y167.174 E11.28598
G1 X115.144 Y166.679 E11.30989
G1 X114.27 Y165.643 E11.35493
G1 X113.9 Y165.102 E11.37671
G1 X113.288 Y163.979 E11.41921
G1 X113.043 Y163.403 E11.44001
G1 X112.723 Y162.39 E11.47532
G1 X112.612 Y161.918 E11.49143
G1 X112.478 Y161.069 E11.51999
G1 X112.439 Y160.637 E11.53441
G1 X112.42 Y159.81 E11.5619
G1 X112.427 Y159.505 E11.57204
G1 X112.754 Y154.889 E11.72582
G1 X112.877 Y149.411 E11.90791
G1 X112.69 Y143.912 E12.09076
G1 X112.426 Y139.947 E12.22282
G1 X112.438 Y139.381 E12.24163
G1 X112.527 Y138.559 E12.26911
G1 X112.635 Y138.01 E12.2877
G1 X113.018 Y136.68 E12.33369
G1 X113.227 Y136.139 E12.35297
G1 X113.604 Y135.376 E12.38125
G1 X113.816 Y135.01 E12.39531
G1 X114.271 Y134.329 E12.42252
G1 X114.437 Y134.103 E12.43184
G1 X116.432 Y131.613 E12.53787
G1 X119.686 Y127.157 E12.72124
G1 X122.654 Y122.569 E12.90283
G1 X125.674 Y117.243 E13.10629
G1 X125.922 Y116.868 E13.12123
G1 X126.946 Y115.533 E13.17715
G1 X127.287 Y115.154 E13.19409
G1 F600 E12.19409
G0 F2625 X129.109 Y116.977
G0 X130.055 Y118.055
G0 X133.141 Y118.793
G0 X133.166 Y118.889
;TYPE:WALL-INNER
G1 F600 E13.19409
G1 F900 X132.389 Y119.211 E13.22204
G1 X131.723 Y119.723 E13.24996
G1 X131.211 Y120.389 E13.27787
G1 X130.889 Y121.166 E13.30582
G1 X130.78 Y122 E13.33378
G1 X130.889 Y122.834 E13.36173
G1 X131.211 Y123.611 E13.38968
G1 X131.723 Y124.277 E13.41759
G1 X132.389 Y124.789 E13.44551
G1 X133.166 Y125.111 E13.47346
G1 X134 Y125.22 E13.50141
G1 X134.834 Y125.111 E13.52936
G1 X135.611 Y124.789 E13.55732
G1 X136.277 Y124.277 E13.58523
G1 X136.789 Y123.611 E13.61315
G1 X137.111 Y122.834 E13.6411
G1 X137.22 Y122 E13.66905
G1 X137.111 Y121.166 E13.697
G1 X136.789 Y120.389 E13.72495
G1 X136.277 Y119.723 E13.75287
G1 X135.611 Y119.211 E13.78079
G1 X134.834 Y118.889 E13.80874
G1 X134 Y118.78 E13.83669
G1 X133.166 Y118.889 E13.86464
G0 F2625 X133.141 Y118.793
G0 X134.721 Y116.548
G0 X134.733 Y116.449
G1 F900 X135.446 Y116.59 E13.88879
G1 X136.144 Y116.828 E13.9133
G1 X136.793 Y117.148 E13.93735
G1 X137.409 Y117.559 E13.96196
G1 X137.959 Y118.041 E13.98626
G1 X138.441 Y118.591 E14.01056
G1 X138.852 Y119.207 E14.03517
G1 X139.172 Y119.856 E14.05922
G1 X139.41 Y120.554 E14.08373
G1 X139.551 Y121.267 E14.10788
G1 X139.599 Y122 E14.13229
G1 X139.551 Y122.733 E14.1567
G1 X139.41 Y123.446 E14.18085
G1 X139.172 Y124.144 E14.20536
G1 X138.852 Y124.793 E14.22941
G1 X138.441 Y125.409 E14.25402
G1 X137.959 Y125.959 E14.27832
G1 X137.409 Y126.441 E14.30262
G1 X136.793 Y126.852 E14.32723
G1 X136.144 Y127.172 E14.35128
G1 X135.446 Y127.41 E14.37579
G1 X134.733 Y127.551 E14.39994
G1 X134 Y127.599 E14.42435
G1 X133.267 Y127.551 E14.44876
G1 X132.554 Y127.41 E14.47292
G1 X131.856 Y127.172 E14.49742
G1 X131.207 Y126.852 E14.52147
G1 X130.591 Y126.441 E14.54608
G1 X130.03 Y125.946 E14.57094
G1 X129.559 Y125.409 E14.59468
G1 X129.148 Y124.793 E14.61929
G1 X128.828 Y124.144 E14.64333
G1 X128.59 Y123.446 E14.66784
G1 X128.449 Y122.733 E14.692
G1 X128.401 Y122 E14.71641
G1 X128.449 Y121.267 E14.74082
G1 X128.59 Y120.554 E14.76497
G1 X128.828 Y119.856 E14.78948
G1 X129.148 Y119.207 E14.81352
G1 X129.559 Y118.591 E14.83813
G1 X130.041 Y118.041 E14.86244
G1 X130.591 Y117.559 E14.88674
G1 X131.207 Y117.148 E14.91135
G1 X131.856 Y116.828 E14.9354
G1 X132.554 Y116.59 E14.9599
G1 X133.267 Y116.449 E14.98406
G1 X134 Y116.401 E15.00847
G1 X134.733 Y116.449 E15.03288
G0 F2625 X134.794 Y115.952
;TYPE:WALL-OUTER
G1 F900 X135.577 Y116.107 E15.0594
G1 X136.335 Y116.365 E15.08601
G1 X137.049 Y116.717 E15.11247
G1 X137.714 Y117.161 E15.13904
G1 X138.313 Y117.687 E15.16553
G1 X138.839 Y118.286 E15.19202
G1 X139.283 Y118.951 E15.2186
G1 X139.635 Y119.665 E15.24505
G1 X139.893 Y120.423 E15.27166
G1 X140.048 Y121.206 E15.29818
G1 X140.1 Y122 E15.32463
G1 X140.048 Y122.794 E15.35107
G1 X139.893 Y123.577 E15.3776
G1 X139.635 Y124.335 E15.4042
G1 X139.283 Y125.049 E15.43066
G1 X138.839 Y125.714 E15.45723
G1 X138.313 Y126.313 E15.48372
G1 X137.714 Y126.839 E15.51021
G1 X137.049 Y127.283 E15.53679
G1 X136.335 Y127.635 E15.56324
G1 X135.577 Y127.893 E15.58985
G1 X134.794 Y128.048 E15.61638
G1 X134 Y128.1 E15.64282
G1 X133.206 Y128.048 E15.66926
G1 X132.423 Y127.893 E15.69579
G1 X131.665 Y127.635 E15.7224
G1 X130.951 Y127.283 E15.74885
G1 X130.286 Y126.839 E15.77542
G1 X129.675 Y126.299 E15.80252
G1 X129.161 Y125.714 E15.8284
G1 X128.717 Y125.049 E15.85497
G1 X128.365 Y124.335 E15.88143
G1 X128.107 Y123.577 E15.90804
G1 X127.952 Y122.794 E15.93456
G1 X127.9 Y122 E15.961
G1 X127.952 Y121.206 E15.98745
G1 X128.107 Y120.423 E16.01397
G1 X128.365 Y119.665 E16.04058
G1 X128.717 Y118.951 E16.06704
G1 X129.161 Y118.286 E16.09361
G1 X129.687 Y117.687 E16.1201
G1 X130.286 Y117.161 E16.14659
G1 X130.951 Y116.717 E16.17316
G1 X131.665 Y116.365 E16.19962
G1 X132.423 Y116.107 E16.22623
G1 X133.206 Y115.952 E16.25275
G1 X134 Y115.9 E16.27919
G1 X134.794 Y115.952 E16.30564
G0 F2625 X135.039 Y116
G0 X134.923 Y116.588
G0 X133.221 Y118.781
G0 X133.297 Y119.376
G1 F900 X132.642 Y119.648 E16.32921
G1 X132.08 Y120.08 E16.35276
G1 X131.648 Y120.642 E16.37632
G1 X131.376 Y121.297 E16.39989
G1 X131.284 Y122 E16.42345
G1 X131.376 Y122.703 E16.44701
G1 X131.648 Y123.358 E16.47058
G1 X132.08 Y123.92 E16.49414
G1 X132.642 Y124.352 E16.51769
G1 X133.297 Y124.624 E16.54126
G1 X134 Y124.716 E16.56482
G1 X134.703 Y124.624 E16.58838
G1 X135.358 Y124.352 E16.61195
G1 X135.92 Y123.92 E16.63551
G1 X136.352 Y123.358 E16.65907
G1 X136.624 Y122.703 E16.68264
G1 X136.716 Y122 E16.7062
G1 X136.624 Y121.297 E16.72976
G1 X136.352 Y120.642 E16.75333
G1 X135.92 Y120.08 E16.77688
G1 X135.358 Y119.648 E16.80044
G1 X134.703 Y119.376 E16.82401
G1 X134 Y119.284 E16.84757
G1 X133.297 Y119.376 E16.87113
G0 F2625 X133.067 Y119.471
G0 X132.838 Y118.917
G0 X133.038 Y118.411
;TYPE:SKIN
G1 F900 X132.142 Y118.783 E16.90337
G1 X131.374 Y119.374 E16.93558
G1 X130.783 Y120.142 E16.96778
G1 X130.411 Y121.038 E17.00002
G1 X130.286 Y122 E17.03226
G1 X130.411 Y122.962 E17.0645
G1 X130.783 Y123.858 E17.09674
G1 X131.374 Y124.626 E17.12894
G1 X132.142 Y125.217 E17.16115
G1 X133.038 Y125.589 E17.19339
G1 X134 Y125.714 E17.22562
G1 X134.962 Y125.589 E17.25786
G1 X135.858 Y125.217 E17.2901
G1 X136.626 Y124.626 E17.32231
G1 X137.217 Y123.858 E17.35451
G1 X137.589 Y122.962 E17.38675
G1 X137.714 Y122 E17.41899
G1 X137.589 Y121.038 E17.45123
G1 X137.217 Y120.142 E17.48347
G1 X136.626 Y119.374 E17.51567
G1 X135.858 Y118.783 E17.54788
G1 X134.962 Y118.411 E17.58012
G1 X134 Y118.286 E17.61235
G1 X133.038 Y118.411 E17.64459
G0 F2625 X132.041 Y117.283
G1 F900 X132.688 Y117.063 E17.6673
G1 X133.333 Y116.935 E17.68915
G1 X134 Y116.891 E17.71137
G1 X134.667 Y116.935 E17.73358
G1 X135.312 Y117.063 E17.75543
G1 X135.959 Y117.283 E17.77814
G1 X136.544 Y117.571 E17.79981
G1 X137.11 Y117.949 E17.82243
G1 X137.612 Y118.388 E17.84459
G1 X138.051 Y118.89 E17.86676
G1 X138.429 Y119.456 E17.88937
G1 X138.717 Y120.041 E17.91104
G1 X138.937 Y120.688 E17.93375
G1 X139.065 Y121.333 E17.9556
G1 X139.109 Y122 E17.97782
G1 X139.065 Y122.667 E18.00003
G1 X138.937 Y123.312 E18.02189
G1 X138.717 Y123.959 E18.0446
G1 X138.429 Y124.544 E18.06626
G1 X138.051 Y125.11 E18.08888
G1 X137.612 Y125.612 E18.11104
G1 X137.11 Y126.051 E18.13321
G1 X136.544 Y126.429 E18.15582
G1 X135.959 Y126.717 E18.17749
G1 X135.312 Y126.937 E18.2002
G1 X134.667 Y127.065 E18.22206
G1 X134 Y127.109 E18.24427
G1 X133.333 Y127.065 E18.26648
G1 X132.688 Y126.937 E18.28834
G1 X132.041 Y126.717 E18.31105
G1 X131.456 Y126.429 E18.33272
G1 X130.886 Y126.048 E18.3555
G1 X130.376 Y125.598 E18.3781
G1 X129.952 Y125.115 E18.39946
G1 X129.571 Y124.544 E18.42227
G1 X129.283 Y123.959 E18.44394
G1 X129.063 Y123.312 E18.46665
G1 X128.935 Y122.667 E18.4885
G1 X128.891 Y122 E18.51072
G1 X128.935 Y121.333 E18.53293
G1 X129.063 Y120.688 E18.55478
G1 X129.283 Y120.041 E18.57749
G1 X129.571 Y119.456 E18.59916
G1 X129.949 Y118.89 E18.62178
G1 X130.388 Y118.388 E18.64394
G1 X130.89 Y117.949 E18.6661
G1 X131.456 Y117.571 E18.68872
G1 X132.041 Y117.283 E18.71039
G0 F2625 X138.505 Y120.121
G1 F900 X135.879 Y117.494 E18.83383
G1 X135.791 Y117.406
