;Generated by Cura LulzBot Edition GCodeWriter Version: 3.2.27
;FLAVOR:Marlin
;TIME:1120
;Filament used: 0.481025m
;Layer height: 0.25
;Generated with Cura_SteamEngine 3.2.27
M82 ;absolute extrusion mode
;This G-Code has been generated specifically for the LulzBot TAZ 6 with standard extruder
M75 ; start GLCD timer
G26 ; clear potential 'probe fail' condition
G21 ; set units to Millimetres
M107 ; disable fans
M420 S0 ; disable previous leveling matrix
G90 ; absolute positioning
M82 ; set extruder to absolute mode
G92 E0 ; set extruder position to 0
M140 S60 ; start bed heating up
M109 R140 ; soften filament before homing Z
G28 ; Home all axis
G1 E-30 F100 ; retract filament
M109 R140 ; wait for extruder to reach wiping temp
G1 X-15 Y100 F3000 ; move above wiper pad
G1 Z1 ; push nozzle into wiper
G1 X-17 Y95 F1000 ; slow wipe
G1 X-17 Y90 F1000 ; slow wipe
G1 X-17 Y85 F1000 ; slow wipe
G1 X-15 Y90 F1000 ; slow wipe
G1 X-17 Y80 F1000 ; slow wipe
G1 X-15 Y95 F1000 ; slow wipe
G1 X-17 Y75 F2000 ; fast wipe
G1 X-15 Y65 F2000 ; fast wipe
G1 X-17 Y70 F2000 ; fast wipe
G1 X-15 Y60 F2000 ; fast wipe
G1 X-17 Y55 F2000 ; fast wipe
G1 X-15 Y50 F2000 ; fast wipe
G1 X-17 Y40 F2000 ; fast wipe
G1 X-15 Y45 F2000 ; fast wipe
G1 X-17 Y35 F2000 ; fast wipe
G1 X-15 Y40 F2000 ; fast wipe
G1 X-17 Y70 F2000 ; fast wipe
G1 X-15 Y30 Z2 F2000 ; fast wipe
G1 X-17 Y35 F2000 ; fast wipe
G1 X-15 Y25 F2000 ; fast wipe
G1 X-17 Y30 F2000 ; fast wipe
G1 X-15 Y25 Z1.5 F1000 ; slow wipe
G1 X-17 Y23 F1000 ; slow wipe
G1 Z10 ; raise extruder
M109 R140 ; wait for extruder to reach probe temp
G1 X-9 Y-9 ; move above first probe point
M204 S100 ; set probing acceleration
G29 ; start auto-leveling sequence
M420 S1 ; activate bed level matrix
M425 Z			     ; use measured Z backlash for compensation
M425 Z F0		     ; turn off measured Z backlash compensation. (if activated in the quality settings, this command will automatically be ignored)
M204 S500 ; restore standard acceleration
G1 X0 Y0 Z15 F5000 ; move up off last probe point
G4 S1 ; pause
M400 ; wait for moves to finish
M117 Heating... ; progress indicator message on LCD
M109 R210 ; wait for extruder to reach printing temp
M190 S60 ; wait for bed to reach printing temp
G1 Z2 E0 F75 ; prime tiny bit of filament into the nozzle
M117 TAZ 6 Printing... ; progress indicator message on LCD

M221 S100
;LAYER_COUNT:13
;LAYER:0
M107
G0 F2625 X109.005 Y114.741 Z0.424
;TYPE:SKIRT
G1 F900 X109.37 Y114.406 E0.01646
G1 X110.016 Y113.887 E0.044
G1 X110.416 Y113.606 E0.06025
G1 X111.108 Y113.185 E0.08717
G1 X111.694 Y112.895 E0.10889
G1 X113.035 Y112.372 E0.15673
G1 X113.673 Y112.187 E0.1788
G1 X114.439 Y112.036 E0.20475
G1 X114.917 Y111.973 E0.22077
G1 X115.751 Y111.918 E0.24855
G1 X116.2 Y111.915 E0.26347
G1 X122.746 Y112.267 E0.48132
G1 X128.183 Y112.239 E0.662
G1 X133.783 Y111.916 E0.84841
G1 X134.201 Y111.915 E0.8623
G1 X140.747 Y112.267 E1.08015
G1 X146.182 Y112.239 E1.26077
G1 X151.783 Y111.916 E1.44721
G1 X152.335 Y111.925 E1.46556
G1 X153.437 Y112.024 E1.50233
G1 X153.73 Y112.062 E1.51215
G1 X159.217 Y112.996 E1.69711
G1 X164.644 Y113.606 E1.8786
G1 X171.016 Y113.968 E2.09069
G1 X171.603 Y114.048 E2.11038
G1 X172.666 Y114.28 E2.14654
G1 X173.226 Y114.449 E2.16598
G1 X174.056 Y114.772 E2.19558
G1 X174.633 Y115.056 E2.21695
G1 X175.792 Y115.755 E2.26193
G1 X176.331 Y116.15 E2.28413
G1 X176.961 Y116.704 E2.31201
G1 X177.461 Y117.238 E2.33632
G1 X178.468 Y118.551 E2.39131
G1 X178.855 Y119.174 E2.41568
G1 X179.218 Y119.91 E2.44296
G1 X179.428 Y120.431 E2.46162
G1 X179.748 Y121.436 E2.49667
G1 X179.878 Y121.983 E2.51536
G1 X180.014 Y122.835 E2.54403
G1 X180.06 Y123.489 E2.56582
G1 X180.037 Y124.866 E2.61158
G1 X179.951 Y125.605 E2.63631
G1 X179.717 Y126.674 E2.67268
G1 X179.548 Y127.233 E2.69208
G1 X179.227 Y128.057 E2.72147
G1 X179.073 Y128.401 E2.734
G1 X176.363 Y133.709 E2.93205
G1 X174.166 Y138.684 E3.11278
G1 X172.252 Y143.777 E3.29359
G1 X170.629 Y148.968 E3.47433
G1 X169.286 Y154.308 E3.65732
G1 X168.748 Y156.919 E3.74591
G1 X167.82 Y162.276 E3.92658
G1 X167.646 Y162.925 E3.94891
G1 X167.27 Y163.952 E3.98526
G1 X167.044 Y164.453 E4.00352
G1 X166.649 Y165.18 E4.03102
G1 X166.287 Y165.727 E4.05282
G1 X165.42 Y166.815 E4.09905
G1 X164.964 Y167.294 E4.12103
G1 X164.341 Y167.842 E4.1486
G1 X163.955 Y168.139 E4.16479
G1 X163.276 Y168.595 E4.19197
G1 X162.846 Y168.844 E4.20848
G1 X162.085 Y169.22 E4.23669
G1 X161.396 Y169.48 E4.26116
G1 X159.802 Y169.908 E4.31601
G1 X159.074 Y170.028 E4.34053
G1 X158.247 Y170.082 E4.36807
G1 X157.801 Y170.085 E4.38289
G1 X151.254 Y169.733 E4.60077
G1 X145.813 Y169.761 E4.78159
G1 X139.946 Y170.076 E4.97684
G1 X139.489 Y170.072 E4.99203
G1 X136.012 Y169.834 E5.10785
G1 X130.511 Y169.708 E5.29071
G1 X127.854 Y169.759 E5.37902
G1 X122.217 Y170.084 E5.56666
G1 X121.67 Y170.075 E5.58484
G1 X120.588 Y169.979 E5.62094
G1 X119.882 Y169.848 E5.6448
G1 X118.54 Y169.462 E5.69121
G1 X117.916 Y169.22 E5.71345
G1 X117.155 Y168.844 E5.74166
G1 X116.658 Y168.549 E5.76086
G1 X115.784 Y167.934 E5.79638
G1 X115.245 Y167.473 E5.81995
G1 X114.276 Y166.47 E5.86629
G1 X113.857 Y165.95 E5.88849
G1 X113.399 Y165.266 E5.91584
G1 X113.117 Y164.766 E5.93492
G1 X112.659 Y163.785 E5.9709
G1 X112.463 Y163.268 E5.98927
G1 X112.223 Y162.461 E6.01725
G1 X112.091 Y161.813 E6.03923
G1 X111.934 Y160.422 E6.08575
G1 X111.91 Y159.996 E6.09993
G1 X111.917 Y155.079 E6.26333
G1 X111.636 Y149.633 E6.44455
G1 X111.05 Y144.223 E6.62539
G1 X110.154 Y138.83 E6.80706
G1 X109.608 Y136.225 E6.89551
G1 X108.967 Y133.554 E6.9868
G1 X107.466 Y128.283 E7.16893
G1 X106.306 Y124.779 E7.29159
G1 X106.188 Y124.331 E7.30698
G1 X106.035 Y123.56 E7.3331
G1 X105.966 Y122.98 E7.35251
G1 X105.922 Y121.881 E7.38906
G1 X105.941 Y121.327 E7.40749
G1 X106.03 Y120.505 E7.43496
G1 X106.113 Y120.026 E7.45112
G1 X106.306 Y119.229 E7.47837
G1 X106.512 Y118.617 E7.49983
G1 X107.064 Y117.347 E7.54585
G1 X107.427 Y116.697 E7.57059
G1 X108.045 Y115.811 E7.60649
G1 X108.407 Y115.368 E7.6255
G1 X109.005 Y114.741 E7.65429
G0 F2625 X109.367 Y115.086
G1 F900 X109.683 Y114.795 E7.66857
G1 X110.329 Y114.276 E7.69611
G1 X110.676 Y114.033 E7.71018
G1 X111.368 Y113.612 E7.7371
G1 X111.876 Y113.361 E7.75593
G1 X113.217 Y112.838 E7.80377
G1 X113.769 Y112.677 E7.82287
G1 X114.535 Y112.526 E7.84882
G1 X114.95 Y112.472 E7.86273
G1 X115.784 Y112.417 E7.8905
G1 X116.173 Y112.415 E7.90343
G1 X122.721 Y112.768 E8.12135
G1 X128.195 Y112.738 E8.30326
G1 X133.812 Y112.415 E8.49024
G1 X134.174 Y112.415 E8.50227
G1 X140.722 Y112.768 E8.72019
G1 X146.194 Y112.738 E8.90203
G1 X151.812 Y112.415 E9.08904
G1 X152.29 Y112.423 E9.10493
G1 X153.392 Y112.522 E9.1417
G1 X153.646 Y112.555 E9.15021
G1 X159.148 Y113.492 E9.33568
G1 X164.596 Y114.104 E9.51787
G1 X170.987 Y114.467 E9.7306
G1 X171.496 Y114.537 E9.74767
G1 X172.559 Y114.769 E9.78383
G1 X173.045 Y114.915 E9.80069
G1 X173.875 Y115.238 E9.83029
G1 X174.374 Y115.484 E9.84878
G1 X175.533 Y116.183 E9.89376
G1 X176.001 Y116.525 E9.91302
G1 X176.631 Y117.079 E9.9409
G1 X177.064 Y117.542 E9.96196
G1 X178.071 Y118.855 E10.01695
G1 X178.407 Y119.395 E10.03809
G1 X178.77 Y120.131 E10.06536
G1 X178.952 Y120.583 E10.08155
G1 X179.272 Y121.588 E10.1166
G1 X179.384 Y122.062 E10.13279
G1 X179.52 Y122.914 E10.16146
G1 X179.561 Y123.48 E10.18032
G1 X179.538 Y124.857 E10.22609
G1 X179.463 Y125.498 E10.24753
G1 X179.229 Y126.567 E10.2839
G1 X179.082 Y127.052 E10.30074
G1 X178.761 Y127.876 E10.33013
G1 X178.628 Y128.174 E10.34097
G1 X175.911 Y133.496 E10.53955
G1 X173.7 Y138.5 E10.72135
G1 X171.778 Y143.615 E10.90294
G1 X170.147 Y148.834 E11.08465
G1 X168.797 Y154.201 E11.26856
G1 X168.256 Y156.825 E11.35759
G1 X167.327 Y162.191 E11.53857
G1 X167.177 Y162.753 E11.5579
G1 X166.801 Y163.78 E11.59424
G1 X166.605 Y164.215 E11.6101
G1 X166.21 Y164.942 E11.6376
G1 X165.896 Y165.415 E11.65646
G1 X165.029 Y166.503 E11.70269
G1 X164.634 Y166.918 E11.72173
G1 X164.011 Y167.466 E11.74931
G1 X163.676 Y167.724 E11.76336
G1 X162.997 Y168.18 E11.79054
G1 X162.625 Y168.396 E11.80483
G1 X161.864 Y168.772 E11.83304
G1 X161.267 Y168.997 E11.85424
G1 X159.673 Y169.425 E11.90909
G1 X159.042 Y169.529 E11.93034
G1 X158.215 Y169.583 E11.95789
G1 X157.828 Y169.585 E11.97075
G1 X151.279 Y169.232 E12.1887
G1 X145.784 Y169.262 E12.37131
G1 X139.919 Y169.576 E12.5665
G1 X139.523 Y169.573 E12.57966
G1 X136.036 Y169.334 E12.69581
G1 X130.512 Y169.207 E12.87943
G1 X127.841 Y169.259 E12.96821
G1 X122.188 Y169.585 E13.15638
G1 X121.714 Y169.577 E13.17214
G1 X120.632 Y169.481 E13.20824
G1 X120.021 Y169.367 E13.22889
G1 X118.679 Y168.981 E13.2753
G1 X118.137 Y168.772 E13.2946
G1 X117.376 Y168.396 E13.32281
G1 X116.946 Y168.14 E13.33944
G1 X116.072 Y167.525 E13.37495
G1 X115.605 Y167.125 E13.39539
G1 X114.636 Y166.122 E13.44173
G1 X114.272 Y165.672 E13.46097
G1 X113.814 Y164.988 E13.48832
G1 X113.57 Y164.555 E13.50484
G1 X113.112 Y163.574 E13.54082
G1 X112.942 Y163.125 E13.55677
G1 X112.702 Y162.318 E13.58475
G1 X112.588 Y161.757 E13.60378
G1 X112.431 Y160.366 E13.6503
G1 X112.41 Y159.996 E13.66261
G1 X112.417 Y155.073 E13.82621
G1 X112.134 Y149.589 E14.0087
G1 X111.546 Y144.157 E14.19027
G1 X110.647 Y138.743 E14.37265
G1 X110.087 Y136.077 E14.46318
G1 X109.46 Y133.46 E14.55261
G1 X107.936 Y128.111 E14.73744
G1 X106.781 Y124.622 E14.85958
G1 X106.678 Y124.234 E14.87292
G1 X106.525 Y123.463 E14.89904
G1 X106.466 Y122.96 E14.91587
G1 X106.422 Y121.861 E14.95242
G1 X106.438 Y121.381 E14.96838
G1 X106.527 Y120.559 E14.99586
G1 X106.599 Y120.144 E15.00985
G1 X106.792 Y119.347 E15.03711
G1 X106.97 Y118.816 E15.05572
G1 X107.522 Y117.546 E15.10174
G1 X107.837 Y116.983 E15.12318
G1 X108.455 Y116.097 E15.15907
G1 X108.769 Y115.713 E15.17556
G1 X109.367 Y115.086 E15.20435
G1 F600 E14.20435
G0 F2625 X111.109 Y116.977
G0 X112.055 Y118.055
G0 X115.141 Y118.793
G0 X115.166 Y118.889
;TYPE:WALL-INNER
G1 F600 E15.20435
G1 F900 X114.389 Y119.211 E15.2323
G1 X113.723 Y119.723 E15.26022
G1 X113.211 Y120.389 E15.28814
G1 X112.889 Y121.166 E15.31609
G1 X112.78 Y122 E15.34404
G1 X112.889 Y122.834 E15.37199
G1 X113.211 Y123.611 E15.39994
G1 X113.723 Y124.277 E15.42786
G1 X114.389 Y124.789 E15.45577
G1 X115.166 Y125.111 E15.48372
G1 X116 Y125.22 E15.51168
G1 X116.834 Y125.111 E15.53963
G1 X117.611 Y124.789 E15.56758
G1 X118.277 Y124.277 E15.59549
G1 X118.789 Y123.611 E15.62341
G1 X119.111 Y122.834 E15.65136
G1 X119.22 Y122 E15.67931
G1 X119.111 Y121.166 E15.70726
G1 X118.789 Y120.389 E15.73522
G1 X118.277 Y119.723 E15.76313
G1 X117.611 Y119.211 E15.79105
G1 X116.834 Y118.889 E15.819
G1 X116 Y118.78 E15.84695
G1 X115.166 Y118.889 E15.8749
G0 F2625 X115.141 Y118.793
G0 X116.721 Y116.548
G0 X116.733 Y116.449
G1 F900 X117.446 Y116.59 E15.89906
G1 X118.144 Y116.828 E15.92356
G1 X118.793 Y117.148 E15.94761
G1 X119.409 Y117.559 E15.97222
G1 X119.959 Y118.041 E15.99652
G1 X120.441 Y118.591 E16.02082
G1 X120.852 Y119.207 E16.04543
G1 X121.172 Y119.856 E16.06948
G1 X121.41 Y120.554 E16.09399
G1 X121.551 Y121.267 E16.11814
G1 X121.599 Y122 E16.14255
G1 X121.551 Y122.733 E16.16696
G1 X121.41 Y123.446 E16.19112
G1 X121.172 Y124.144 E16.21562
G1 X120.852 Y124.793 E16.23967
G1 X120.441 Y125.409 E16.26428
G1 X119.959 Y125.959 E16.28858
G1 X119.409 Y126.441 E16.31289
G1 X118.793 Y126.852 E16.33749
G1 X118.144 Y127.172 E16.36154
G1 X117.446 Y127.41 E16.38605
G1 X116.733 Y127.551 E16.4102
G1 X116 Y127.599 E16.43461
G1 X115.267 Y127.551 E16.45902
G1 X114.554 Y127.41 E16.48318
G1 X113.856 Y127.172 E16.50769
G1 X113.207 Y126.852 E16.53173
G1 X112.591 Y126.441 E16.55634
G1 X112.041 Y125.959 E16.58064
G1 X111.559 Y125.409 E16.60495
G1 X111.148 Y124.793 E16.62956
G1 X110.828 Y124.144 E16.6536
G1 X110.59 Y123.446 E16.67811
G1 X110.449 Y122.733 E16.70226
G1 X110.401 Y122 E16.72667
G1 X110.449 Y121.267 E16.75109
G1 X110.59 Y120.554 E16.77524
G1 X110.828 Y119.856 E16.79975
G1 X111.148 Y119.207 E16.82379
G1 X111.559 Y118.591 E16.8484
G1 X112.041 Y118.041 E16.87271
G1 X112.591 Y117.559 E16.89701
G1 X113.207 Y117.148 E16.92162
G1 X113.856 Y116.828 E16.94566
G1 X114.554 Y116.59 E16.97017
G1 X115.267 Y116.449 E16.99433
G1 X116 Y116.401 E17.01874
G1 X116.733 Y116.449 E17.04315
G0 F2625 X116.794 Y115.952
;TYPE:WALL-OUTER
G1 F900 X117.577 Y116.107 E17.06967
G1 X118.335 Y116.365 E17.09628
G1 X119.049 Y116.717 E17.12274
G1 X119.714 Y117.161 E17.14931
G1 X120.313 Y117.687 E17.1758
G1 X120.839 Y118.286 E17.20229
G1 X121.283 Y118.951 E17.22886
G1 X121.635 Y119.665 E17.25532
G1 X121.893 Y120.423 E17.28193
G1 X122.048 Y121.206 E17.30845
G1 X122.1 Y122 E17.3349
G1 X122.048 Y122.794 E17.36134
G1 X121.893 Y123.577 E17.38786
G1 X121.635 Y124.335 E17.41447
G1 X121.283 Y125.049 E17.44093
G1 X120.839 Y125.714 E17.4675
G1 X120.313 Y126.313 E17.49399
G1 X119.714 Y126.839 E17.52048
G1 X119.049 Y127.283 E17.54706
G1 X118.335 Y127.635 E17.57351
G1 X117.577 Y127.893 E17.60012
G1 X116.794 Y128.048 E17.62664
G1 X116 Y128.1 E17.65309
G1 X115.206 Y128.048 E17.67953
G1 X114.423 Y127.893 E17.70606
G1 X113.665 Y127.635 E17.73266
G1 X112.951 Y127.283 E17.75912
G1 X112.286 Y126.839 E17.78569
G1 X111.687 Y126.313 E17.81218
G1 X111.161 Y125.714 E17.83867
G1 X110.717 Y125.049 E17.86525
G1 X110.365 Y124.335 E17.8917
G1 X110.107 Y123.577 E17.91831
G1 X109.952 Y122.794 E17.94484
G1 X109.9 Y122 E17.97128
G1 X109.952 Y121.206 E17.99772
G1 X110.107 Y120.423 E18.02425
G1 X110.365 Y119.665 E18.05086
G1 X110.717 Y118.951 E18.07731
G1 X111.161 Y118.286 E18.10388
G1 X111.687 Y117.687 E18.13037
G1 X112.286 Y117.161 E18.15686
G1 X112.951 Y116.717 E18.18344
G1 X113.665 Y116.365 E18.20989
G1 X114.423 Y116.107 E18.2365
G1 X115.206 Y115.952 E18.26303
G1 X116 Y115.9 E18.28947
G1 X116.794 Y115.952 E18.31591
G0 F2625 X117.039 Y116
G0 X116.923 Y116.588
G0 X115.221 Y118.781
G0 X115.297 Y119.376
G1 F900 X114.642 Y119.648 E18.33948
G1 X114.08 Y120.08 E18.36304
G1 X113.648 Y120.642 E18.38659
G1 X113.376 Y121.297 E18.41016
G1 X113.284 Y122 E18.43372
G1 X113.376 Y122.703 E18.45729
G1 X113.648 Y123.358 E18.48085
G1 X114.08 Y123.92 E18.50441
G1 X114.642 Y124.352 E18.52797
G1 X115.297 Y124.624 E18.55154
G1 X116 Y124.716 E18.5751
G1 X116.703 Y124.624 E18.59866
G1 X117.358 Y124.352 E18.62223
G1 X117.92 Y123.92 E18.64579
G1 X118.352 Y123.358 E18.66934
G1 X118.624 Y122.703 E18.69291
G1 X118.716 Y122 E18.71647
G1 X118.624 Y121.297 E18.74003
G1 X118.352 Y120.642 E18.7636
G1 X117.92 Y120.08 E18.78716
G1 X117.358 Y119.648 E18.81072
G1 X116.703 Y119.376 E18.83428
G1 X116 Y119.284 E18.85785
G1 X115.297 Y119.376 E18.88141
G0 F2625 X115.067 Y119.471
G0 X114.838 Y118.917
G0 X115.038 Y118.411
;TYPE:SKIN
G1 F900 X114.142 Y118.783 E18.91365
G1 X113.374 Y119.374 E18.94585
G1 X112.783 Y120.142 E18.97806
G1 X112.411 Y121.038 E19.0103
G1 X112.286 Y122 E19.04253
G1 X112.411 Y122.962 E19.07477
G1 X112.783 Y123.858 E19.10701
G1 X113.374 Y124.626 E19.13922
G1 X114.142 Y125.217 E19.17142
G1 X115.038 Y125.589 E19.20366
G1 X116 Y125.714 E19.2359
G1 X116.962 Y125.589 E19.26814
G1 X117.858 Y125.217 E19.30038
G1 X118.626 Y124.626 E19.33258
G1 X119.217 Y123.858 E19.36479
G1 X119.589 Y122.962 E19.39703
G1 X119.714 Y122 E19.42926
G1 X119.589 Y121.038 E19.4615
G1 X119.217 Y120.142 E19.49374
G1 X118.626 Y119.374 E19.52595
G1 X117.858 Y118.783 E19.55815
G1 X116.962 Y118.411 E19.59039
G1 X116 Y118.286 E19.62263
G1 X115.038 Y118.411 E19.65487
G0 F2625 X114.041 Y117.283
G1 F900 X114.688 Y117.063 E19.67758
G1 X115.333 Y116.935 E19.69943
G1 X116 Y116.891 E19.72164
G1 X116.667 Y116.935 E19.74386
G1 X117.312 Y117.063 E19.76571
G1 X117.959 Y117.283 E19.78842
G1 X118.544 Y117.571 E19.81009
G1 X119.11 Y117.949 E19.83271
G1 X119.612 Y118.388 E19.85487
G1 X120.051 Y118.89 E19.87703
G1 X120.429 Y119.456 E19.89965
G1 X120.717 Y120.041 E19.92132
G1 X120.937 Y120.688 E19.94403
G1 X121.065 Y121.333 E19.96588
G1 X121.109 Y122 E19.98809
G1 X121.065 Y122.667 E20.01031
G1 X120.937 Y123.312 E20.03216
G1 X120.717 Y123.959 E20.05487
G1 X120.429 Y124.544 E20.07654
G1 X120.051 Y125.11 E20.09916
G1 X119.612 Y125.612 E20.12132
G1 X119.11 Y126.051 E20.14348
G1 X118.544 Y126.429 E20.1661
G1 X117.959 Y126.717 E20.18777
G1 X117.312 Y126.937 E20.21048
